X:1
T:Soon as I heard my Father say
T:Soon as I heard my Father say - Belgrove (Thomas Jarman)
C:Thomas Jarman
Z:p20, Sacred Music, comprising
Z:Thirty Six Select Hymns,
Z:London: [c1812]
%%score [ 1 2 3 4 ]
L:1/8
M:3/2
K:Bmin
V:1 treble nm="Soprano" snm="S."
V:2 treble nm="Alto" snm="A."
V:3 treble-8 transpose=-12 nm="Tenor" snm="T."
V:4 bass nm="Bass" snm="B."
V:1
 d4 A4 c4 | (d3 e f4) (edge) | d8 c4 | d8 f4 | (B6 c2) d4 | c4 B8 | A8 ||[M:2/2] z2 | z4 z2 A2 | %9
w: Should friends and|kin- * * dred _ _ _|near and|dear Leave|me _ to|want, or|die;||My|
w: Soon as I|heard _ _ my _ _ _|Fa- ther|say, Ye|child- * ren,|seek my|grace,||My|
w: Let not thy|face _ _ be _ _ _|hid from|me, Nor|frown _ my|soul a-|way;||God|
 d2 f2 d2 A2 | d2 d2 d2 e2 | f2 f2 f2 e2 | d2 A2 B2 c2 | d4 z2 e2 | f2 d2 B2 c2 | d4 z2 e2 | %16
w: God would make my|life his care, my|God would make my|life his care, And|all, and|all my need sup-|ply, and|
w: heart re- plied with-|out de- lay, my|heart re- plied with-|out de- lay, I’ll|seek, I’ll|seek my Fa- ther’s|face, I’ll|
w: of my life, I|fly to thee, God|of my life, I|fly to thee, In|a, in|a dis- tress- ing|day, in|
 f4 (e2 d2) | d4 c4 | d8 |] %19
w: all my _|need sup-|ply.|
w: seek my _|Fa- ther’s|face.|
w: a dis- *|tress- ing|day.|
V:2
 F4 F4 E4 | (F3 E D4) G4 | F8 E4 | F8 D4 | (D6 E2) (F2 A2) | E8 D4 | C8 ||[M:2/2] z2 | z8 | %9
w: Should friends and|kin- * * dred|near and|dear Leave|me _ to _|want, or|die;|||
w: Soon as I|heard _ _ my|Fa- ther|say, Ye|child- * ren, _|seek my|grace,|||
w: Let not thy|face _ _ be|hid from|me, Nor|frown _ my _|soul a-|way;|||
 z4 z2 F2 | A2 F2 D2 A2 | A2 A2 A2 A2 | F2 F2 F2 A2 | A4 z2 A2 | A2 F2 G2 G2 | F4 z2 A2 | %16
w: My|God would make my|life his care, my|life his care, And|all, and|all my need sup-|ply, and|
w: My|heart re- plied with-|out de- lay, with-|out de- lay, I’ll|seek, I’ll|seek my Fa- ther’s|face, I’ll|
w: God|of my life, I|fly to thee, I|fly to thee, In|a, in|a dis- tress- ing|day, in|
 (A2 F2) B4 | A4 G4 | F8 |] %19
w: all _ my|need sup-|ply.|
w: seek _ my|Fa- ther’s|face.|
w: a _ dis-|tress- ing|day.|
V:3
 A4 A4 A4 | A8 c4 | d4 A8 | A8 A4 | G8 A4 | A4 ^G8 | A8 ||[M:2/2] z2 | z8 | z8 | z4 z2 c2 | %11
w: Should friends and|kin- dred|near and|dear Leave|me to|want, or|die;||||My|
w: Soon as I|heard my|Fa- ther|say, Ye|child- ren,|seek my|grace,||||My|
w: Let not thy|face be|hid from|me, Nor|frown my|soul a-|way;||||God|
 d2 f2 d2 c2 | d2 d2 d2 e2 | f2 e2 d2 (cB) | A4 z2 A2 | d2 B2 c2 c2 | d2 d2 e2 g2 | f4 e4 | d8 |] %19
w: God would make my|life his care, And|all my need sup- *|ply, and|all my need sup-|ply, and all my|need sup-|ply.|
w: heart re- plied with-|out de- lay, I’ll|seek my Fa- ther’s _|face, I’ll|seek my Fa- ther’s|face, I’ll seek my|Fa- ther’s|face.|
w: of my life, I|fly to thee, In|a dis- tress- ing _|day, in|a dis- tress- ing|day, in a dis-|tress- ing|day.|
V:4
 D,4 D,4 A,,4 | D,8"^6" E,4 |"^6" (F,3 G,"^64" A,4)"^53" [A,,A,]4 | D,8 D,4 | G,8"^6" F,4 | %5
w: Should friends and|kin- dred|near _ _ and|dear Leave|me to|
w: Soon as I|heard my|Fa- * * ther|say, Ye|child- ren,|
w: Let not thy|face be|hid _ _ from|me, Nor|frown my|
"^64""^5#" E,8"^7" E,4 | A,,8 ||[M:2/2] A,,2 | D,2"^6" F,2 D,2 C,2 | D,2 D,2 D,2 D,2 | %10
w: want, or|die;|My|God would make my|life his care, my|
w: seek my|grace,|My|heart re- plied with-|out de- lay, my|
w: soul a-|way;|God|of my life, I|fly to thee, God|
"^6" F,6 A,2 | D4 z2 A,2 | D2 D2 D2 A,2 | %13
w: God would|make my|life his care, And|
w: heart re-|plied with-|out de- lay, I’ll|
w: of my|life, I|fly to thee, In|
"^Notes:The original order of parts is Tenor - Alto - Air - [Bass]: the alto part is printed in the treble clef an octave abovesounding pitch in the source.Only the first verse of the text is given in the source: selected subsequent verses have been added editorially." D2 A,2"^6" B,2"^6" C2 | %14
w: all my need sup-|
w: seek my Fa- ther’s|
w: a dis- tress- ing|
 D4 z2"^7" A,2 | B,2 G,2"^6" E,2 A,2 | D2"^6" F,2"^6" G,2 E,2 |"^64" A,4"^7" A,,4 | D,8 |] %19
w: ply, and|all my need sup-|ply, and all my|need sup-|ply.|
w: face, I’ll|seek my Fa- ther’s|face, I’ll seek my|Fa- ther’s|face.|
w: day, in|a dis- tress- ing|day, in a dis-|tress- ing|day.|

